X:141
T:Snug in the Blanket
Z: id:dc-jig-119
M:6/8
L:1/8
K:G Major
A2B cBc|EFE c2A|B2G AFD|GAG BAG|!
A2B cBc|EFE c2A|BdB cAF|G3 BAG:|!
FGA AFd|AFd AFd|FGA AFd|EFG GFE|!
FGA AFd|AFd ABc|BdB cAF|G3 BAG:|!
FGA AFD|DED AFD|FGA AFD|GFG BAG|!
FGA AFD|DED ABc|BdB cAF|G3 BAG:|!

